Costumes/Q-story-2.svg

<?xml version="1.0" encoding="utf-8"?>
<!-- Generator: Adobe Illustrator 18.0.0, SVG Export Plug-In . SVG Version: 6.00 Build 0)  -->
<!DOCTYPE svg PUBLIC "-//W3C//DTD SVG 1.1//EN" "http://www.w3.org/Graphics/SVG/1.1/DTD/svg11.dtd">
<svg version="1.1" id="Layer_2" xmlns="http://www.w3.org/2000/svg" xmlns:xlink="http://www.w3.org/1999/xlink" x="0px" y="0px"
	 viewBox="0 0 51.1 61.5" enable-background="new 0 0 51.1 61.5" xml:space="preserve">
<g>
	<path fill="#F7941E" d="M44.7,40.3c3.6-4.3,5.8-9.1,6.3-14.6c0.4-5-0.2-9.8-3-14.2c-1.3-2-2.7-4-4.7-5.4C41.6,5,39.8,3.9,38,2.9
		c-2.3-1.2-4.8-2.1-7.3-2.7C28-0.3,25.2,0,22.6,1c-3.3,1.3-6.7,2.5-9.5,4.7c-3.1,2.3-6.2,4.8-8.6,8c-1.4,1.8-2.6,3.7-3.2,5.9
		C0.4,23.1-0.1,26.7,0,30.3c0.1,4.1,1.3,7.9,3.8,11.2c2.8,3.7,6.5,6.2,10.6,8.1c1.4,0.6,2.9,0.9,4.4,1.2c1.1,0.2,2.2,0.2,3.4,0.3
		c-0.3,0.3-0.6,0.6-0.9,1c-1.1,1.1-2.2,2.2-3.2,3.5c-1.1,1.4-1.1,1.4,0.1,2.7c0.2,0.2,0.6,0.2,0.9,0.1c1.5-0.7,3-1.4,4.6-2.1
		c1.8-0.9,3.4-0.5,4.9,0.8c1.2,1,2.3,2.1,3.5,3.1c1.5,1.3,3.4,1.5,5.2,1.2c1.5-0.2,2.9-1,4.1-2c0.4-0.3,0.8-0.7,1.2-0.9
		c1.9-1.1,3.5-2.5,4.9-4.2c0.2-0.3,0.4-0.6,0.5-0.8c-0.5-0.4-1-0.7-1.3-1.1c-0.4-0.5-0.6-0.4-1-0.1c-0.9,0.7-1.7,1.5-2.6,2.2
		c-1.4,1.1-3,0.9-4.4,0.3c-1-0.5-1.9-1.4-2.8-2.2c-1-0.8-2-1.7-2.9-2.6c0.8-0.4,1.8-0.8,2.6-1.4C38.9,46.2,42,43.6,44.7,40.3z
		 M35.1,52.8c1.1,0.9,2,2.1,3.3,2.7c1.6,0.7,3.4,0.8,5-0.4c1-0.7,1.8-1.5,2.7-2.3c0.4,0.3,0.7,0.6,1,1c-1.1,1.3-2.3,2.6-3.9,3.4
		c-0.6,0.3-1.2,0.6-1.7,0.9c-1.7,1-3.4,0.4-5.1,0c-1.8-0.5-3.1-1.7-4.2-3.2c-2.1-3-3.9-3.6-7.3-2.2c-0.3,0.1-0.7,0.3-1,0.5
		c-1.2,0.7-1.3,0.6-2.3-0.6c2-1.9,4.2-3.3,7-3.4c1.4-0.1,2.7,0.5,3.8,1.3C33.3,51.2,34.2,52,35.1,52.8z M31.5,46.7
		c-3.6,0.8-6.9,0.2-10.3-1.1c-4.7-1.9-8.1-5.3-10.7-9.4c-1-1.6-1.5-3.6-2.2-5.4c-0.7-1.8-1-3.6-0.9-5.5c0.1-2.1,0.1-4.3,0.3-6.4
		c0.3-2.4,1.4-4.6,2.7-6.7c1.7-2.8,3.5-5.4,6.2-7.3c3.3-2.3,6.8-3.8,10.8-4.2c2.7-0.2,5.1,0.5,7.5,1.6c2.4,1.1,4.7,2.2,7,3.5
		c2.3,1.3,3.9,3.5,5.5,5.7c1.2,1.8,2,3.7,2.4,5.8c0.5,2.3,0.7,4.7,0.9,6.5c-0.3,5.5-1.7,10.1-4.8,14C42.2,42.6,37.2,45.3,31.5,46.7z
		"/>
	<path fill="#FFFFFF" d="M47.1,53.8c-1.1,1.3-2.3,2.6-3.9,3.4c-0.6,0.3-1.2,0.6-1.7,0.9c-1.7,1-3.4,0.4-5.1,0
		c-1.8-0.5-3.1-1.7-4.2-3.2c-2.1-3-3.9-3.6-7.3-2.2c-0.3,0.1-0.7,0.3-1,0.5c-1.2,0.7-1.3,0.6-2.3-0.6c2-1.9,4.2-3.3,7-3.4
		c1.4-0.1,2.7,0.5,3.8,1.3c1,0.7,1.8,1.5,2.7,2.2c1.1,0.9,2,2.1,3.3,2.7c1.6,0.7,3.4,0.8,5-0.4c1-0.7,1.8-1.5,2.7-2.3
		C46.4,53.2,46.7,53.5,47.1,53.8z"/>
	<path fill="#FFFFFF" d="M49.7,17.3c-0.4-2-1.2-4-2.4-5.8c-1.5-2.2-3.1-4.4-5.5-5.7c-2.2-1.3-4.6-2.4-7-3.5c-2.4-1-4.8-1.8-7.5-1.6
		c-4,0.4-7.6,1.9-10.8,4.2c-2.7,1.9-4.5,4.5-6.2,7.3c-1.3,2.1-2.3,4.3-2.7,6.7c-0.3,2.1-0.2,4.2-0.3,6.4c-0.1,1.9,0.2,3.7,0.9,5.5
		c0.7,1.8,1.2,3.8,2.2,5.4c2.6,4.1,6,7.5,10.7,9.4c3.4,1.4,6.7,1.9,10.3,1.1c5.8-1.3,10.7-4.1,14.3-8.8c3-4,4.5-8.5,4.8-14
		C50.3,22,50.1,19.6,49.7,17.3z M44.1,10.9c0.3,0.4,0.8,0.7,1.1,1.1c1.1,1.6,1.4,3.5,1.8,5.3c0.2,1,0.4,2,0.5,2.9
		c0,0.2-0.2,0.5-0.3,0.8c-0.1-0.2-0.3-0.5-0.3-0.7c-0.5-2.6-0.8-5.2-2-7.7c-0.3-0.5-0.6-1-0.9-1.5C43.9,11,44,11,44.1,10.9z
		 M13.5,10.5c0-0.1,0.1-0.1,0.3-0.2c-0.1,0.4-0.1,0.7-0.2,1c-0.8,2.5-1.7,4.9-2.4,7.4c-0.3,1-0.4,2-0.6,3c0,0.2-0.3,0.3-0.4,0.5
		c-0.1-0.2-0.3-0.4-0.3-0.5C10.7,17.8,11.4,13.9,13.5,10.5z M9.6,24.8c-0.1-0.5,0.1-0.9,0.7-0.9c0.6,0,0.9,0.3,0.9,0.9
		c0,0.6-0.5,1.2-1,1.2C9.4,26,9.7,25.3,9.6,24.8z M14.3,38.1c-0.5-0.7-1.2-1.3-1.6-2c-1.1-2.2-2.1-4.4-2.4-6.9c0-0.1-0.1-0.3,0-0.4
		c0.1-0.2,0.2-0.4,0.3-0.5c0.1,0.1,0.3,0.3,0.3,0.5c0.2,0.9,0.3,1.8,0.6,2.7c0.7,1.8,1.6,3.6,2.4,5.4c0.2,0.4,0.4,0.7,0.5,1
		C14.5,38,14.4,38.1,14.3,38.1z M27.3,46c-1.6-0.1-3.1-0.6-4.4-1.5c-4.5-2.8-7.1-6.9-8.3-12.1c-0.9-3.9-1.5-7.9-1-11.9
		c0.3-2.5,1-5,1.7-7.5c1.3-4.5,4.7-7.4,8.6-9.7c2-1.2,4.4-1.5,6.6-1.1c3.2,0.6,6.2,2.1,8.3,4.8c1.1,1.4,2.4,2.8,3.3,4.4
		c1.3,2,1.9,4.4,2.1,6.8c0.1,1.8,0.2,3.6,0.3,5c-0.2,2.4-0.2,4.5-0.5,6.5c-0.5,3.3-1.4,6.5-3.4,9.1C37.3,43.2,33.1,46.2,27.3,46z
		 M47,29.1c-0.5,1.7-1,3.4-1.6,5c-0.3,0.9-0.8,1.6-1.3,2.4c-0.1,0.2-0.4,0.4-0.6,0.6l-0.2-0.2c1.6-3,2.4-6.3,3.4-9.5
		c0.1-0.2,0.2-0.3,0.4-0.4c0.1,0.2,0.3,0.4,0.3,0.5C47.3,28,47.2,28.6,47,29.1z M47.4,24.8c-0.3-0.3-0.6-0.5-1.1-1
		c0.4-0.3,0.6-0.6,0.8-0.6c0.6-0.1,0.8,0.4,0.8,0.9C47.9,24.3,47.6,24.5,47.4,24.8z"/>
	<path fill="#F7941E" d="M44,18.2c-0.2-2.4-0.8-4.8-2.1-6.8c-1-1.5-2.2-2.9-3.3-4.4c-2.1-2.7-5-4.2-8.3-4.8
		c-2.2-0.4-4.6-0.1-6.6,1.1c-3.9,2.3-7.2,5.1-8.6,9.7c-0.7,2.4-1.4,4.9-1.7,7.5c-0.5,4,0.1,8,1,11.9c1.2,5.2,3.9,9.2,8.3,12.1
		c1.3,0.9,2.8,1.4,4.4,1.5c5.8,0.2,10-2.8,13.2-7.1c2-2.6,2.9-5.8,3.4-9.1c0.3-2,0.3-4.1,0.5-6.5C44.3,21.8,44.2,20,44,18.2z
		 M37.5,31.5c0,0.5-0.2,0.9-0.3,1.4c-1.1,3.4-2.4,6.7-4.6,9.5c-1.3,1.7-3,3-5.2,3c-1.2,0-2.6-0.5-3.6-1.2c-3.4-2.1-6.1-4.8-7.4-8.6
		c-1.3-3.8-2.5-7.6-2-11.6c-0.3-4.1,0.5-7.9,1.9-11.6c1-2.6,2.6-4.8,5.3-6.1c1.8-0.9,3.5-1.6,5.5-1.5c3,0.2,5.5,1.1,6.9,4
		c0.6,1.2,1.5,2.2,2.1,3.4c1.2,2.8,1.6,5.8,1.9,8.8C38.1,24.6,37.8,28,37.5,31.5z"/>
	<path fill="#F7941E" d="M13.8,10.3c-0.1,0.4-0.1,0.7-0.2,1c-0.8,2.5-1.7,4.9-2.4,7.4c-0.3,1-0.4,2-0.6,3c0,0.2-0.3,0.3-0.4,0.5
		c-0.1-0.2-0.3-0.4-0.3-0.5c0.7-3.9,1.5-7.7,3.5-11.1C13.5,10.5,13.6,10.4,13.8,10.3z"/>
	<path fill="#F7941E" d="M14.6,37.9c-0.1,0.1-0.2,0.1-0.2,0.2c-0.5-0.7-1.2-1.3-1.6-2c-1.1-2.2-2.1-4.4-2.4-6.9c0-0.1-0.1-0.3,0-0.4
		c0.1-0.2,0.2-0.4,0.3-0.5c0.1,0.1,0.3,0.3,0.3,0.5c0.2,0.9,0.3,1.8,0.6,2.7c0.7,1.8,1.6,3.6,2.4,5.4C14.2,37.3,14.4,37.6,14.6,37.9
		z"/>
	<path fill="#F7941E" d="M47.4,27.5c-0.1,0.5-0.2,1.1-0.4,1.6c-0.5,1.7-1,3.4-1.6,5c-0.3,0.9-0.8,1.6-1.3,2.4
		c-0.1,0.2-0.4,0.4-0.6,0.6l-0.2-0.2c1.6-3,2.4-6.3,3.4-9.5c0.1-0.2,0.2-0.3,0.4-0.4C47.2,27.1,47.4,27.3,47.4,27.5z"/>
	<path fill="#F7941E" d="M47.4,20.3c0,0.2-0.2,0.5-0.3,0.8c-0.1-0.2-0.3-0.5-0.3-0.7c-0.5-2.6-0.8-5.2-2-7.7c-0.3-0.5-0.6-1-0.9-1.5
		c0.1-0.1,0.1-0.2,0.2-0.2c0.3,0.4,0.8,0.7,1.1,1.1c1.1,1.6,1.4,3.5,1.8,5.3C47.1,18.3,47.3,19.3,47.4,20.3z"/>
	<path fill="#F7941E" d="M11.2,24.8c0,0.6-0.5,1.2-1,1.2c-0.9,0-0.5-0.8-0.6-1.2c-0.1-0.5,0.1-0.9,0.7-0.9
		C10.9,24,11.2,24.2,11.2,24.8z"/>
	<path fill="#F7941E" d="M47.9,24.1c0,0.2-0.3,0.5-0.5,0.7c-0.3-0.3-0.6-0.5-1.1-1c0.4-0.3,0.6-0.6,0.8-0.6
		C47.7,23.1,47.9,23.6,47.9,24.1z"/>
</g>
</svg>

<?xml version="1.0" encoding="UTF-8" standalone="no"?>
<!-- Generator: Adobe Illustrator 18.0.0, SVG Export Plug-In . SVG Version: 6.00 Build 0)  -->

<svg
   version="1.1"
   id="Layer_2"
   x="0px"
   y="0px"
   viewBox="0 0 51.124422 61.559574"
   enable-background="new 0 0 51.1 61.5"
   xml:space="preserve"
   sodipodi:docname="Q-story-2.svg"
   width="51.12442"
   height="61.559574"
   xmlns:inkscape="http://www.inkscape.org/namespaces/inkscape"
   xmlns:sodipodi="http://sodipodi.sourceforge.net/DTD/sodipodi-0.dtd"
   xmlns="http://www.w3.org/2000/svg"
   xmlns:svg="http://www.w3.org/2000/svg"><defs
   id="defs27" /><sodipodi:namedview
   id="namedview25"
   pagecolor="#ffffff"
   bordercolor="#000000"
   borderopacity="0.25"
   inkscape:showpageshadow="2"
   inkscape:pageopacity="0.0"
   inkscape:pagecheckerboard="0"
   inkscape:deskcolor="#d1d1d1" />
<g
   id="g22"
   transform="translate(0.01261822,0.03751982)">
	<path
   fill="#f7941e"
   d="M 44.7,40.3 C 48.3,36 50.5,31.2 51,25.7 51.4,20.7 50.8,15.9 48,11.5 46.7,9.5 45.3,7.5 43.3,6.1 41.6,5 39.8,3.9 38,2.9 35.7,1.7 33.2,0.8 30.7,0.2 28,-0.3 25.2,0 22.6,1 19.3,2.3 15.9,3.5 13.1,5.7 10,8 6.9,10.5 4.5,13.7 3.1,15.5 1.9,17.4 1.3,19.6 0.4,23.1 -0.1,26.7 0,30.3 c 0.1,4.1 1.3,7.9 3.8,11.2 2.8,3.7 6.5,6.2 10.6,8.1 1.4,0.6 2.9,0.9 4.4,1.2 1.1,0.2 2.2,0.2 3.4,0.3 -0.3,0.3 -0.6,0.6 -0.9,1 -1.1,1.1 -2.2,2.2 -3.2,3.5 -1.1,1.4 -1.1,1.4 0.1,2.7 0.2,0.2 0.6,0.2 0.9,0.1 1.5,-0.7 3,-1.4 4.6,-2.1 1.8,-0.9 3.4,-0.5 4.9,0.8 1.2,1 2.3,2.1 3.5,3.1 1.5,1.3 3.4,1.5 5.2,1.2 1.5,-0.2 2.9,-1 4.1,-2 0.4,-0.3 0.8,-0.7 1.2,-0.9 1.9,-1.1 3.5,-2.5 4.9,-4.2 0.2,-0.3 0.4,-0.6 0.5,-0.8 -0.5,-0.4 -1,-0.7 -1.3,-1.1 -0.4,-0.5 -0.6,-0.4 -1,-0.1 -0.9,0.7 -1.7,1.5 -2.6,2.2 -1.4,1.1 -3,0.9 -4.4,0.3 -1,-0.5 -1.9,-1.4 -2.8,-2.2 -1,-0.8 -2,-1.7 -2.9,-2.6 0.8,-0.4 1.8,-0.8 2.6,-1.4 3.3,-2.4 6.4,-5 9.1,-8.3 z m -9.6,12.5 c 1.1,0.9 2,2.1 3.3,2.7 1.6,0.7 3.4,0.8 5,-0.4 1,-0.7 1.8,-1.5 2.7,-2.3 0.4,0.3 0.7,0.6 1,1 -1.1,1.3 -2.3,2.6 -3.9,3.4 -0.6,0.3 -1.2,0.6 -1.7,0.9 -1.7,1 -3.4,0.4 -5.1,0 -1.8,-0.5 -3.1,-1.7 -4.2,-3.2 -2.1,-3 -3.9,-3.6 -7.3,-2.2 -0.3,0.1 -0.7,0.3 -1,0.5 -1.2,0.7 -1.3,0.6 -2.3,-0.6 2,-1.9 4.2,-3.3 7,-3.4 1.4,-0.1 2.7,0.5 3.8,1.3 0.9,0.7 1.8,1.5 2.7,2.3 z M 31.5,46.7 C 27.9,47.5 24.6,46.9 21.2,45.6 16.5,43.7 13.1,40.3 10.5,36.2 9.5,34.6 9,32.6 8.3,30.8 7.6,29 7.3,27.2 7.4,25.3 7.5,23.2 7.5,21 7.7,18.9 8,16.5 9.1,14.3 10.4,12.2 12.1,9.4 13.9,6.8 16.6,4.9 19.9,2.6 23.4,1.1 27.4,0.7 c 2.7,-0.2 5.1,0.5 7.5,1.6 2.4,1.1 4.7,2.2 7,3.5 2.3,1.3 3.9,3.5 5.5,5.7 1.2,1.8 2,3.7 2.4,5.8 0.5,2.3 0.7,4.7 0.9,6.5 -0.3,5.5 -1.7,10.1 -4.8,14 -3.7,4.8 -8.7,7.5 -14.4,8.9 z"
   id="path2" />
	<path
   fill="#ffffff"
   d="m 47.1,53.8 c -1.1,1.3 -2.3,2.6 -3.9,3.4 -0.6,0.3 -1.2,0.6 -1.7,0.9 -1.7,1 -3.4,0.4 -5.1,0 -1.8,-0.5 -3.1,-1.7 -4.2,-3.2 -2.1,-3 -3.9,-3.6 -7.3,-2.2 -0.3,0.1 -0.7,0.3 -1,0.5 -1.2,0.7 -1.3,0.6 -2.3,-0.6 2,-1.9 4.2,-3.3 7,-3.4 1.4,-0.1 2.7,0.5 3.8,1.3 1,0.7 1.8,1.5 2.7,2.2 1.1,0.9 2,2.1 3.3,2.7 1.6,0.7 3.4,0.8 5,-0.4 1,-0.7 1.8,-1.5 2.7,-2.3 0.3,0.5 0.6,0.8 1,1.1 z"
   id="path4" />
	<path
   fill="#ffffff"
   d="m 49.7,17.3 c -0.4,-2 -1.2,-4 -2.4,-5.8 C 45.8,9.3 44.2,7.1 41.8,5.8 39.6,4.5 37.2,3.4 34.8,2.3 32.4,1.3 30,0.5 27.3,0.7 23.3,1.1 19.7,2.6 16.5,4.9 13.8,6.8 12,9.4 10.3,12.2 9,14.3 8,16.5 7.6,18.9 7.3,21 7.4,23.1 7.3,25.3 c -0.1,1.9 0.2,3.7 0.9,5.5 0.7,1.8 1.2,3.8 2.2,5.4 2.6,4.1 6,7.5 10.7,9.4 3.4,1.4 6.7,1.9 10.3,1.1 5.8,-1.3 10.7,-4.1 14.3,-8.8 3,-4 4.5,-8.5 4.8,-14 -0.2,-1.9 -0.4,-4.3 -0.8,-6.6 z m -5.6,-6.4 c 0.3,0.4 0.8,0.7 1.1,1.1 1.1,1.6 1.4,3.5 1.8,5.3 0.2,1 0.4,2 0.5,2.9 0,0.2 -0.2,0.5 -0.3,0.8 -0.1,-0.2 -0.3,-0.5 -0.3,-0.7 -0.5,-2.6 -0.8,-5.2 -2,-7.7 C 44.6,12.1 44.3,11.6 44,11.1 43.9,11 44,11 44.1,10.9 Z M 13.5,10.5 c 0,-0.1 0.1,-0.1 0.3,-0.2 -0.1,0.4 -0.1,0.7 -0.2,1 -0.8,2.5 -1.7,4.9 -2.4,7.4 -0.3,1 -0.4,2 -0.6,3 0,0.2 -0.3,0.3 -0.4,0.5 C 10.1,22 9.9,21.8 9.9,21.7 10.7,17.8 11.4,13.9 13.5,10.5 Z M 9.6,24.8 c -0.1,-0.5 0.1,-0.9 0.7,-0.9 0.6,0 0.9,0.3 0.9,0.9 0,0.6 -0.5,1.2 -1,1.2 -0.8,0 -0.5,-0.7 -0.6,-1.2 z m 4.7,13.3 c -0.5,-0.7 -1.2,-1.3 -1.6,-2 -1.1,-2.2 -2.1,-4.4 -2.4,-6.9 0,-0.1 -0.1,-0.3 0,-0.4 0.1,-0.2 0.2,-0.4 0.3,-0.5 0.1,0.1 0.3,0.3 0.3,0.5 0.2,0.9 0.3,1.8 0.6,2.7 0.7,1.8 1.6,3.6 2.4,5.4 0.2,0.4 0.4,0.7 0.5,1 0.1,0.1 0,0.2 -0.1,0.2 z m 13,7.9 c -1.6,-0.1 -3.1,-0.6 -4.4,-1.5 -4.5,-2.8 -7.1,-6.9 -8.3,-12.1 -0.9,-3.9 -1.5,-7.9 -1,-11.9 0.3,-2.5 1,-5 1.7,-7.5 1.3,-4.5 4.7,-7.4 8.6,-9.7 2,-1.2 4.4,-1.5 6.6,-1.1 3.2,0.6 6.2,2.1 8.3,4.8 1.1,1.4 2.4,2.8 3.3,4.4 1.3,2 1.9,4.4 2.1,6.8 0.1,1.8 0.2,3.6 0.3,5 -0.2,2.4 -0.2,4.5 -0.5,6.5 -0.5,3.3 -1.4,6.5 -3.4,9.1 -3.3,4.4 -7.5,7.4 -13.3,7.2 z M 47,29.1 c -0.5,1.7 -1,3.4 -1.6,5 -0.3,0.9 -0.8,1.6 -1.3,2.4 -0.1,0.2 -0.4,0.4 -0.6,0.6 l -0.2,-0.2 c 1.6,-3 2.4,-6.3 3.4,-9.5 0.1,-0.2 0.2,-0.3 0.4,-0.4 0.1,0.2 0.3,0.4 0.3,0.5 -0.1,0.5 -0.2,1.1 -0.4,1.6 z m 0.4,-4.3 c -0.3,-0.3 -0.6,-0.5 -1.1,-1 0.4,-0.3 0.6,-0.6 0.8,-0.6 0.6,-0.1 0.8,0.4 0.8,0.9 0,0.2 -0.3,0.4 -0.5,0.7 z"
   id="path6" />
	<path
   fill="#f7941e"
   d="M 44,18.2 C 43.8,15.8 43.2,13.4 41.9,11.4 40.9,9.9 39.7,8.5 38.6,7 36.5,4.3 33.6,2.8 30.3,2.2 28.1,1.8 25.7,2.1 23.7,3.3 19.8,5.6 16.5,8.4 15.1,13 c -0.7,2.4 -1.4,4.9 -1.7,7.5 -0.5,4 0.1,8 1,11.9 1.2,5.2 3.9,9.2 8.3,12.1 1.3,0.9 2.8,1.4 4.4,1.5 5.8,0.2 10,-2.8 13.2,-7.1 2,-2.6 2.9,-5.8 3.4,-9.1 0.3,-2 0.3,-4.1 0.5,-6.5 0.1,-1.5 0,-3.3 -0.2,-5.1 z m -6.5,13.3 c 0,0.5 -0.2,0.9 -0.3,1.4 -1.1,3.4 -2.4,6.7 -4.6,9.5 -1.3,1.7 -3,3 -5.2,3 -1.2,0 -2.6,-0.5 -3.6,-1.2 -3.4,-2.1 -6.1,-4.8 -7.4,-8.6 -1.3,-3.8 -2.5,-7.6 -2,-11.6 -0.3,-4.1 0.5,-7.9 1.9,-11.6 1,-2.6 2.6,-4.8 5.3,-6.1 1.8,-0.9 3.5,-1.6 5.5,-1.5 3,0.2 5.5,1.1 6.9,4 0.6,1.2 1.5,2.2 2.1,3.4 1.2,2.8 1.6,5.8 1.9,8.8 0.1,3.6 -0.2,7 -0.5,10.5 z"
   id="path8" />
	<path
   fill="#f7941e"
   d="m 13.8,10.3 c -0.1,0.4 -0.1,0.7 -0.2,1 -0.8,2.5 -1.7,4.9 -2.4,7.4 -0.3,1 -0.4,2 -0.6,3 0,0.2 -0.3,0.3 -0.4,0.5 -0.1,-0.2 -0.3,-0.4 -0.3,-0.5 0.7,-3.9 1.5,-7.7 3.5,-11.1 0.1,-0.1 0.2,-0.2 0.4,-0.3 z"
   id="path10" />
	<path
   fill="#f7941e"
   d="m 14.6,37.9 c -0.1,0.1 -0.2,0.1 -0.2,0.2 -0.5,-0.7 -1.2,-1.3 -1.6,-2 -1.1,-2.2 -2.1,-4.4 -2.4,-6.9 0,-0.1 -0.1,-0.3 0,-0.4 0.1,-0.2 0.2,-0.4 0.3,-0.5 0.1,0.1 0.3,0.3 0.3,0.5 0.2,0.9 0.3,1.8 0.6,2.7 0.7,1.8 1.6,3.6 2.4,5.4 0.2,0.4 0.4,0.7 0.6,1 z"
   id="path12" />
	<path
   fill="#f7941e"
   d="m 47.4,27.5 c -0.1,0.5 -0.2,1.1 -0.4,1.6 -0.5,1.7 -1,3.4 -1.6,5 -0.3,0.9 -0.8,1.6 -1.3,2.4 -0.1,0.2 -0.4,0.4 -0.6,0.6 l -0.2,-0.2 c 1.6,-3 2.4,-6.3 3.4,-9.5 0.1,-0.2 0.2,-0.3 0.4,-0.4 0.1,0.1 0.3,0.3 0.3,0.5 z"
   id="path14" />
	<path
   fill="#f7941e"
   d="m 47.4,20.3 c 0,0.2 -0.2,0.5 -0.3,0.8 C 47,20.9 46.8,20.6 46.8,20.4 46.3,17.8 46,15.2 44.8,12.7 44.5,12.2 44.2,11.7 43.9,11.2 44,11.1 44,11 44.1,11 c 0.3,0.4 0.8,0.7 1.1,1.1 1.1,1.6 1.4,3.5 1.8,5.3 0.1,0.9 0.3,1.9 0.4,2.9 z"
   id="path16" />
	<path
   fill="#f7941e"
   d="m 11.2,24.8 c 0,0.6 -0.5,1.2 -1,1.2 -0.9,0 -0.5,-0.8 -0.6,-1.2 -0.1,-0.5 0.1,-0.9 0.7,-0.9 0.6,0.1 0.9,0.3 0.9,0.9 z"
   id="path18" />
	<path
   fill="#f7941e"
   d="m 47.9,24.1 c 0,0.2 -0.3,0.5 -0.5,0.7 -0.3,-0.3 -0.6,-0.5 -1.1,-1 0.4,-0.3 0.6,-0.6 0.8,-0.6 0.6,-0.1 0.8,0.4 0.8,0.9 z"
   id="path20" />
</g>
</svg>
